!!!!SEGMENT: pl-wtm--r-1334_stefani-jozef--mazur-d-nr-1.krn
!!!cenid: 18xx:1841
!!!COM: Stefani, Józef
!!!COM-rismid: pe30024097
!!!CDT: 1800/04/16-1876/03/19
!!!CNT: Polish
!!!OTL: Mazur D nr 1
!!!PDT:
!!!AGN: Secular; Mazurka
!!!SMS-siglum: PL-Wtm
!!!SMS-shelfmark: R 1334
!!!SMS-shelfwork: W
!!!SMS-variant:
!!!SMS-altvar:
!!!NIFC-rismid: 1001119012
!!!system-decoration: {(s1,s2)}
**kern	**kern	**dynam
*part1	*part1	*part1
*staff2	*staff1	*
*	*I"Piano	*
*clefF4	*clefG2	*
*k[f#c#]	*k[f#c#]	*
*M3/8	*M3/8	*
*>[A,A,B,B1,B,B2,A,A]	*>[A,A,B,B1,B,B2,A,A]	*
=1	=1	=1
*>A	*>A	*
!LO:TX:t=P:problem:all\right:global	!LO:TX:t=P:problem:all\right:global	!
!	!LO:TX:a:Bi:t=Mazur	!
!	!	!LO:DY:b:rj
8D 8DD/	8ddd 8ff# 8dd`>\	f
4d 4A 4F# 4D\	4aa 4ff# 4dd'>^<\	.
=2	=2	=2
8G 8GG/	8bb 8gg 8dd`>\	.
4d 4B 4G\	4gg 4dd 4b'>^<\	.
=3	=3	=3
8AA 8AAA/	8eeL 8cc# 8a'>\	.
8AL 8E 8C# 8AA\	8.aa 8.cc# 8.a`>^<\	.
8AJ 8E 8C# 8AA\	.	.
.	16gg`>\Jk	.
=4	=4	=4
8AL 8F# 8D\	16ff#\LL	.
.	16gg\	.
8A 8E 8C# 8AA\	16ee\	.
.	16ff#\J	.
8AJ 8F# 8D\	8dd\J	.
=5	=5	=5
.	(<8qdd#X/	p
*tremolo	*	*
8c#L 8A 8E\	8ee\L)	.
8c# 8A 8E\	16ff#\L	<
.	16gg#X\	.
8c#J 8A 8E\	16aa\	.
.	16bb\JJ	[
!!LO:LB:g=original
=6	=6	=6
8c#L 8A 8E\	16ccc#\LL	<
.	16ddd\J	.
8c# 8A 8E\	8eee\	.
8c#J 8A 8E\	16fff#\L	[
.	16eee\JJ	.
=7	=7	=7
8dL 8B 8G#X 8E\	16fff#\LL	.
.	16eee\J	.
8d 8B 8G# 8E\	8bb\	.
8dJ 8B 8G# 8E\	16ddd\L	.
.	16ccc#\JJ	.
*Xtremolo	*	*
=8	=8	=8
8c# 8A\	8aa\	.
16.A 16.AA/	16.aa 16.cc# 16.a\	.
32AKLL 32AA/	32aaKLL 32a\	<
16.G 16.GG/	16.bb 16.b\	.
32EJJk 32EE/	32ccc#JJk 32cc#\	.
=9	=9	=9
.	(<8qccc#/	[ f
8D 8DD/	8ddd`>\)	.
4d 4A 4F# 4D\	4aa 4ff# 4dd'>^<\	.
=10	=10	=10
.	(>&(<8qaa#X/	.
8G 8GG/	8bb\)&)	.
4d 4B 4G\	4gg 4dd 4b`>^<\	.
!!LO:LB:g=original
=11	=11	=11
8AA 8AAA/	8eeL 8cc# 8a\	.
8AL 8E 8C# 8AA\	8.aa 8.cc# 8.a\	.
8AJ 8E 8C# 8AA\	.	.
.	16gg\Jk	.
=12	=12	=12
8AL 8F# 8D\	16ff#\LL	.
.	16gg\	.
8A 8E 8C# 8AA\	16ee\	.
.	16ff#\J	.
8AJ 8F# 8D\	8dd\J	.
=13	=13	=13
*^	*	*
4.G/	8G\L	8b\L	.
.	8e 8B\	16cc#X\L	.
.	.	16dd#X\	.
.	8eJ 8B\	16ee\	.
.	.	16ff#\JJ	.
=14	=14	=14	=14
4G/	8G\L	16gg\LL	.
.	.	16aa\J	.
.	8eJ 8B\	8bb\J	.
8e#X 8B 8G#X\	8ryy	8bb^<\	.
*v	*v	*	*
=15	=15	=15
8f#L 8d 8A\	16bb\LL	.
.	16aa\	.
8f# 8d 8A\	16ff#\	.
.	16a\	.
8gJ 8c# 8A\	16ff#\	.
.	16ee\JJ	.
=16	=16	=16
8f# 8d\	8dd\	.
8d 8D\	8ddd 8ff# 8dd^<\	.
8r	8r	.
!!LO:LB:g=original
=17	=17	=17
*^	*	*
!	!	!LO:TX:b:Bi:t=dolce	!
4.AA/	16AA\LL	16e`>/LL	.
.	(>16A\	32r	.
.	.	32cc#JJk 32e`>/	.
.	16E\	8cc#L 8e`>/	.
.	16A\	.	.
.	16E\	8cc#J 8e`>/	.
.	16A\JJ)	.	.
=18	=18	=18	=18
*rep	*rep	*	*
4.AA/	16AA\LL	8dd 8f#`>/	.
.	(>16A\	.	.
.	16E\	4cc# 4e`>/	.
.	16A\	.	.
.	16E\	.	.
.	16A\JJ)	.	.
*Xrep	*Xrep	*	*
=19	=19	=19	=19
4.AA/	16AA\LL	(<16cc#/LL	.
.	(>16G#X\	16dd/J)	.
.	16E\	8.b/	.
.	16G#\	.	.
.	16E\	.	.
.	16G#\JJ)	16e/Jk	.
=20	=20	=20	=20
4.AA/	16AA\LL	(<16b/LL	.
.	(>16A\	16cc#/JJ	.
.	16E 16C#\	8.a/L)	.
.	16A\	.	.
.	16E 16C#\	.	.
.	16A\JJ)	16e/Jk	.
=21	=21	=21	=21
4.AA/	16AA\LL	16e/LL	.
.	16A\	32r	.
.	.	32cc#JJk 32e/	.
.	16E\	8cc#L 8e/	.
.	16A\	.	.
.	16E\	8cc#J 8e/	.
.	16A\JJ	.	.
=22	=22	=22	=22
*	*	*^	*
*rep	*rep	*	*	*
4.AA/	16AA\LL	(>16ee/LL	8a 8f#\	.
.	16A\	16dd/JJ)	.	.
.	16E\	4cc# 4a/	4e\	.
.	16A\	.	.	.
.	16E\	.	.	.
.	16A\JJ	.	.	.
*Xrep	*Xrep	*	*	*
!!LO:LB:=original
*	*	*v	*v	*
=23	=23	=23	=23
4.E/	16E\LL	(>16ff#\LL	.
.	(>16d\	16ee\JJ)	.
.	16G#X\	8.dd\L	.
.	16d\	.	.
.	16G#\	.	.
.	16d\JJ)	16b\Jk	.
*v	*v	*	*
=24	=24	=24
16c# 16A\	16a/	.
16r	16r	.
16.A 16.AA/	16.aa 16.cc# 16.a\	.
32AKLL 32AA/	32aaKLL 32a`>\	<
16.G 16.GG/	16.bb 16.b`>\	.
32EJJk 32EE/	32ccc#JJk 32cc#`>\	[[
=25	=25	=25
.	(>8qccc#/	f
8D 8DD/	8ddd\)	.
4d 4A 4F# 4D\	4aa 4ff# 4dd^<\	.
=26	=26	=26
.	(<8qaa#X/	.
8G 8GG/	8bb\)	.
4d 4B 4G\	4gg 4dd 4b^<\	.
=27	=27	=27
8AAL 8AAA/	8eeL 8cc# 8a\	.
8A 8E 8C# 8AA/	8.aa 8.ee 8.cc#\	.
8AJ 8E 8C# 8AA/	.	.
.	16gg\Jk	.
=28	=28	=28
8AL 8F# 8D\	16ff#\LL	.
.	16gg\	.
8A 8E 8C# 8AA\	16ee\	.
.	16ff#\J	.
8AJ 8F# 8D\	8dd\J	.
!!LO:LB:g=original
=29	=29	=29
*^	*	*
4.G/	8G\L	8b\L	.
.	8e 8B\	16cc#\L	.
.	.	16dd#X\	.
.	8eJ 8B\	16ee\	.
.	.	16ff#\JJ	.
=30	=30	=30	=30
4G/	8G\L	16gg\LL	.
.	.	16aa\J	.
.	8e 8B\	8bb\J	.
8ryy	8e#XJ 8d 8B 8G#X\	8bb^<\	.
*v	*v	*	*
=31	=31	=31
8f#L 8d 8A\	16bb\LL	.
.	16aa\	.
8f# 8d 8A\	16ff#\	.
.	16dd\	.
8gJ 8c# 8A\	16ff#\	.
.	16ee\JJ	.
=32	=32	=32
8f# 8d\	8dd\	.
8d 8D\	8ddd 8ff# 8dd\	.
!	!LO:TX:a:t=P:w źródle tylko jedna fermata [górna] nad kreską repetycji:problem	!
!LO:TX:b:Bi:t=fine	!	!
8r	8r	.
!!LO:PB:g=original
=33:|!;	=33:|!;	=33:|!
*>B	*>B	*
*k[f#]	*k[f#]	*
*M3/8	*M3/8	*
!	!LO:TX:a:Bi:t=Trio.:rj	!
16.GLL 16.D 16.GG\	16.gLL 16.B/	.
32GJJk 32D 32GG\	32gJJk 32B/	.
8GL 8D 8GG\	8gL 8B/	.
8GJ 8C#X 8GG\	8eJ 8A#X^</	.
=34	=34	=34
*rep	*	*
16.GLL 16.D 16.GG\	16.dLL 16.B/	.
32GJJk 32D 32GG\	32gJJk 32B/	.
8GL 8D 8GG\	8gL 8B/	.
8GJ 8C#X 8GG\	8eJ 8A#X^</	.
*Xrep	*	*
=35	=35	=35
16.GLL 16.D 16.GG\	16.dLL 16.B/	.
32GJJk 32D 32GG\	32gJJk 32d 32B/	.
8GL 8D 8GG\	8gL 8d 8B/	.
8GJ 8D 8GG\	8bJ 8g 8d/	.
=36	=36	=36
.	(<8qb/	.
8AL 8F# 8D\	16.a/LL)	.
.	32g#X/JJk	.
8A 8F# 8D\	8a/L	.
8AJ 8F# 8D\	8ddJ 8f# 8d/	.
!!LO:LB:g=original
=37	=37	=37
16.GLL 16.D 16.GG\	16.g/LL	.
32GJJk 32D 32GG\	32gJJk 32B/	.
8GL 8D 8GG\	8gL 8B/	.
8GJ 8C#X 8GG\	8eJ 8A#X/	.
=38	=38	=38
*rep	*	*
16.GLL 16.D 16.GG\	16.dLL 16.B/	.
32GJJk 32D 32GG\	32gJJk 32B/	.
8GL 8D 8GG\	8gL 8B/	.
8GJ 8C#X 8GG\	8eJ 8A#X/	.
*Xrep	*	*
=39	=39	=39
16.GLL 16.D 16.GG\	16.dLL 16.B/	.
32GJJk 32D 32GG\	32gJJk 32d 32B/	.
8GL 8D 8GG\	8gL 8d 8B/	.
8GJ 8D 8GG\	8bJ 8g 8d/	.
=40	=40	=40
8A 8F# 8D\	(<16b/LL	.
.	16a/JJ)	.
4A 4F# 4D\	4d/	.
=41||	=41||	=41||
*^	*	*
4.D/	8D\L	8cc 8a\	.
.	8d\	(<16aLL 16f#/	.
.	.	16bJJ 16g/)	.
.	8d\J	16ccLL 16a'>\	.
.	.	16eeJJ 16cc'>\	.
!!LO:LB:g=original
=42	=42	=42	=42
4.G/	8G\L	(>16eeLL 16cc\	.
.	.	16ddJJ 16b\)	.
.	8d\	8bL 8g\	.
.	8d\J	8ggJ 8b\	.
=43	=43	=43	=43
4.D/	8D\L	(>16bb\LL	.
.	.	16aa\)	.
.	8d 8A 8F#\	(>16cc#X\	.
.	.	16dd\)	.
.	8dJ 8A 8F#\	16ff#'>\	.
.	.	16aa'>\JJ	.
*v	*v	*	*
=44	=44	=44
8GG/	(>16ccc\LL	.
.	16bb\JJ)	.
8BL 8G 8D\	8gg\L	.
8BJ 8G 8D\	8b\J	.
=45	=45	=45
*^	*	*
4.D/	8D\L	8cc 8a\	.
.	8d\	(<16aLL 16f#/	.
.	.	16bJJ 16g/)	.
.	8d\J	16ccLL 16a'>\	.
.	.	16eeJJ 16cc'>\	.
=46	=46	=46	=46
4G/	8G\L	(>16eeLL 16cc\	.
.	.	16ddJJ 16b\)	.
.	8d\J	8bL 8g\	.
8e 8B 8E\	8ryy	8ggJ 8b 8g\	.
!!LO:LB:g=original
*v	*v	*	*
=47	=47	=47
!!LO:TX:a:Bi:t=1ma
*>B1	*>B1	*
8AA/	(>16ff#\LL	.
.	16ee\JJ)	.
8AL 8G 8E\	8b\L	.
8AJ 8G 8E\	8cc#X\J	.
=48	=48	=48
8A 8F# 8D\	8dd\	.
4A 4F# 4D\	4d/	.
=49:|!	=49:|!	=49:|!
!!LO:TX:a:Bi:t=2da
*>B2	*>B2	*
*^	*	*
4C/	8C\L	16ee\LL	.
.	.	16aa\JJ	.
.	8c 8A 8D\	8dd'>\L	.
8ryy	8cJ 8A 8D\	8ff#'>\J	.
*v	*v	*	*
=50	=50	=50
8B 8G\	8gg\	.
!	!LO:TX:b:Bi:t=Mazur da capo\nal fine	!
!	!LO:TX:a:t=P:w źródle tylko jedna fermata [górna] nad kreską końcową:problem	!
4B 4G\	4g/	.
==;	==;	==
*-	*-	*-
!!title: @{OTL};
!!!RDF**kern: > = above
!!!RDF**kern: < = below
!!!RDF**dynam: < = "cresc", fontstyle= "bold-italic"
!!!RDF**dynam: > = "dim", fontstyle= "bold-italic"
!!!RDF**kern: N = linked
!!!RDF**kern: i = editorial accidental
!!!EED: Wojciech Jakubiak-Danek
!!!EST: 2021-05-02
!!!URL-scan: http://repozytorium.nifc.pl/skany/pl-wtm-nut--r1334
!!!ONB-nifc:
!!!ENC: Krzysztof Stępień
!!!END: 2021-04-10
